app/img/svg-sprite/phone.svg

<svg width="30" height="30" viewBox="0 0 30 30" fill="none" xmlns="http://www.w3.org/2000/svg">
<g clip-path="url(#clip0)">
<path d="M29.2128 23.1433L23.1407 19.0939C22.3701 18.5842 21.3372 18.7519 20.7675 19.4793L18.9988 21.7535C18.7715 22.0532 18.3583 22.1402 18.0294 21.9575L17.693 21.772C16.5777 21.1641 15.1899 20.4072 12.3938 17.6101C9.59771 14.813 8.83932 13.4242 8.23139 12.3109L8.0469 11.9745C7.86172 11.6457 7.94702 11.2307 8.24685 11.0016L10.5195 9.2334C11.2466 8.66366 11.4146 7.63104 10.9054 6.86024L6.85605 0.788129C6.33423 0.00320626 5.28731 -0.232423 4.47948 0.253189L1.94035 1.77845C1.14254 2.24748 0.557214 3.0071 0.307115 3.89812C-0.607222 7.22961 0.0806243 12.9793 8.55038 21.45C15.2879 28.187 20.3037 29.9988 23.7512 29.9988C24.5446 30.0022 25.3349 29.8989 26.1008 29.6918C26.992 29.442 27.7518 28.8566 28.2205 28.0586L29.7473 25.521C30.2336 24.713 29.9981 23.6654 29.2128 23.1433ZM28.8858 25.008L27.3626 27.5471C27.026 28.1232 26.4796 28.5467 25.8378 28.729C22.7622 29.5734 17.3891 28.874 9.25774 20.7427C1.12643 12.6114 0.427097 7.23864 1.27148 4.16263C1.45403 3.52007 1.87807 2.97294 2.45478 2.63584L4.99392 1.11257C5.34443 0.901667 5.79882 1.0039 6.02525 1.34451L8.22494 4.64701L10.0712 7.41609C10.2923 7.75043 10.2196 8.19855 9.90423 8.44596L7.63107 10.2142C6.93929 10.7431 6.74175 11.7002 7.16766 12.4599L7.34816 12.7878C7.98709 13.9596 8.78144 15.4174 11.6815 18.317C14.5816 21.2166 16.0389 22.011 17.2102 22.6498L17.5386 22.8308C18.2982 23.2567 19.2553 23.0592 19.7843 22.3674L21.5525 20.0942C21.8 19.779 22.2479 19.7064 22.5824 19.9273L28.654 23.9767C28.9948 24.2029 29.097 24.6576 28.8858 25.008Z" fill="#6F6F6F" fill-opacity="0.4"/>
</g>
<defs>
<clipPath id="clip0">
<rect width="30" height="30" fill="white"/>
</clipPath>
</defs>
</svg>

<svg xmlns="http://www.w3.org/2000/svg" xmlns:xlink="http://www.w3.org/1999/xlink" viewBox="0 0 30 30"><defs><style>.cls-1{fill:none;}.cls-2{clip-path:url(#clip-path);}.cls-3{fill:#6f6f6f;fill-opacity:0.4;}</style><clipPath id="clip-path" transform="translate(0 0)"><rect class="cls-1" width="30" height="30"/></clipPath></defs><title>phone</title><g id="Слой_2" data-name="Слой 2"><g id="Слой_1-2" data-name="Слой 1"><g class="cls-2"><path class="cls-3" d="M29.21,23.14l-6.07-4.05a1.77,1.77,0,0,0-2.37.39L19,21.75A.76.76,0,0,1,18,22l-.34-.19a20.44,20.44,0,0,1-5.3-4.16,20.69,20.69,0,0,1-4.16-5.3L8.05,12a.75.75,0,0,1,.2-1l2.27-1.77a1.78,1.78,0,0,0,.39-2.37L6.86.79A1.77,1.77,0,0,0,4.48.25L1.94,1.78A3.57,3.57,0,0,0,.31,3.9C-.61,7.23.08,13,8.55,21.45,15.29,28.19,20.3,30,23.75,30a8.92,8.92,0,0,0,2.35-.31,3.57,3.57,0,0,0,2.12-1.63l1.53-2.54A1.77,1.77,0,0,0,29.21,23.14ZM28.89,25l-1.53,2.54a2.57,2.57,0,0,1-1.52,1.18c-3.08.84-8.45.14-16.58-8S.43,7.24,1.27,4.16A2.57,2.57,0,0,1,2.45,2.64L5,1.11a.78.78,0,0,1,1,.23L8.22,4.65l1.85,2.77a.77.77,0,0,1-.17,1L7.63,10.21a1.75,1.75,0,0,0-.46,2.25l.18.33a21.23,21.23,0,0,0,4.33,5.53,21.23,21.23,0,0,0,5.53,4.33l.33.18a1.74,1.74,0,0,0,2.24-.46l1.77-2.28a.78.78,0,0,1,1-.16L28.65,24A.77.77,0,0,1,28.89,25Z" transform="translate(0 0)"/></g></g></g></svg>
